public/skills/mysql.svg

<svg width="256" height="252" viewBox="0 0 256 252" fill="none" xmlns="http://www.w3.org/2000/svg">
<path d="M235.649 194.212C221.731 193.865 210.944 195.257 201.897 199.084C199.287 200.127 195.111 200.128 194.763 203.433C196.155 204.826 196.329 207.088 197.547 209.001C199.636 212.48 203.288 217.178 206.594 219.615C210.247 222.398 213.902 225.181 217.728 227.617C224.514 231.793 232.17 234.228 238.781 238.404C242.609 240.838 246.435 243.972 250.263 246.581C252.177 247.972 253.394 250.235 255.83 251.104V250.583C254.612 249.016 254.264 246.755 253.047 245.015C251.309 243.275 249.568 241.709 247.828 239.969C242.782 233.185 236.519 227.269 229.733 222.398C224.167 218.57 211.987 213.351 209.726 206.913C209.726 206.913 209.551 206.74 209.378 206.566C213.205 206.218 217.728 204.826 221.383 203.782C227.298 202.215 232.691 202.564 238.781 200.998C241.564 200.302 244.348 199.432 247.131 198.562V196.997C244.001 193.865 241.739 189.69 238.432 186.732C229.56 179.075 219.816 171.595 209.726 165.332C204.332 161.853 197.372 159.59 191.631 156.633C189.544 155.588 186.064 155.067 184.847 153.327C181.714 149.5 179.974 144.455 177.713 139.931C172.669 130.361 167.796 119.749 163.446 109.659C160.316 102.873 158.402 96.0873 154.574 89.8245C136.654 60.2479 117.168 42.3281 87.2432 24.7555C80.8057 21.1023 73.1513 19.5361 64.974 17.6227C60.6256 17.4481 56.275 17.101 51.9254 16.9264C49.1422 15.7083 46.3578 12.4033 43.9217 10.837C34.0068 4.5731 8.43034 -8.99607 1.12297 8.9237C-3.57472 20.2325 8.08218 31.3665 12.0835 37.1087C15.0424 41.11 18.8691 45.633 20.9571 50.1572C22.1752 53.1129 22.5223 56.2465 23.7404 59.378C26.5247 67.0313 29.1333 75.5579 32.7876 82.6918C34.702 86.345 36.7889 90.1727 39.225 93.4777C40.6167 95.391 43.0517 96.262 43.5745 99.3934C41.1395 102.873 40.9648 108.092 39.5721 112.442C33.3093 132.102 35.7454 156.459 44.618 170.899C47.4012 175.247 54.0133 184.818 62.8859 181.164C70.7151 178.033 68.9753 168.116 71.2368 159.417C71.7596 157.328 71.4114 155.937 72.4549 154.545C72.4558 154.719 72.4549 154.894 72.4549 154.894C74.891 159.765 77.3261 164.463 79.5876 169.334C84.9817 177.858 94.376 186.732 102.205 192.648C106.382 195.778 109.687 201.172 114.906 203.086V202.563H114.558C113.514 200.997 111.949 200.302 110.557 199.084C107.426 195.952 103.945 192.125 101.51 188.645C94.2035 178.901 87.7649 168.116 82.0238 156.98C79.2405 151.588 76.8044 145.672 74.5428 140.279C73.4983 138.19 73.4983 135.059 71.7585 134.016C69.1488 137.843 65.3221 141.149 63.4077 145.846C60.1038 153.327 59.7545 162.548 58.5364 172.117C57.8412 172.292 58.1882 172.117 57.8401 172.465C52.2736 171.072 50.3591 165.332 48.2711 160.46C43.0517 148.108 42.1818 128.274 46.706 114.008C47.924 110.354 53.1434 98.8717 51.0555 95.3921C50.012 92.086 46.5313 90.1727 44.618 87.563C42.3564 84.2569 39.9203 80.0821 38.3551 76.4279C34.1792 66.6854 32.0912 55.8984 27.5681 46.1548C25.4802 41.6307 21.827 36.9341 18.8691 32.7592C15.5642 28.0615 11.9099 24.7555 9.30018 19.1879C8.43138 17.2745 7.2122 14.1431 8.60382 12.0551C8.95201 10.6635 9.64726 10.1418 11.04 9.79358C13.3015 7.87913 19.739 10.3153 22.0005 11.3587C28.438 13.9673 33.8309 16.4046 39.225 20.0578C41.66 21.7976 44.2697 25.1036 47.4012 25.9735H51.0554C56.623 27.1905 62.8858 26.3217 68.1052 27.8869C77.3271 30.8436 85.6768 35.1943 93.1589 39.892C115.951 54.3321 134.739 74.8626 147.441 99.3934C149.529 103.394 150.398 107.049 152.312 111.224C155.966 119.749 160.489 128.448 164.143 136.799C167.796 144.975 171.275 153.327 176.495 160.113C179.106 163.765 189.543 165.68 194.241 167.594C197.721 169.159 203.115 170.552 206.246 172.465C212.161 176.117 218.076 180.294 223.644 184.296C226.428 186.383 235.126 190.733 235.649 194.212L235.649 194.212Z" fill="#00546B"/>
<path d="M58.1874 43.0225C55.2295 43.0225 53.1427 43.3718 51.0547 43.8935C51.0547 43.8926 51.0547 44.0681 51.0547 44.2417H51.4029C52.7956 47.0249 55.2296 48.9393 56.9694 51.3744C58.3621 54.1576 59.5791 56.942 60.9718 59.7263C61.1453 59.5517 61.3189 59.3782 61.3189 59.3782C63.7561 57.6372 64.9731 54.854 64.9731 50.6791C63.9286 49.4611 63.755 48.243 62.8851 47.0249C61.8417 45.284 59.579 44.4152 58.1874 43.0225Z" fill="#00546B"/>
</svg>

<svg xmlns="http://www.w3.org/2000/svg" xmlns:xlink="http://www.w3.org/1999/xlink" aria-hidden="true" role="img" width="1.02em" height="1em" preserveAspectRatio="xMidYMid meet" viewBox="0 0 256 252"><path d="M235.648 194.212c-13.918-.347-24.705 1.045-33.752 4.872c-2.61 1.043-6.786 1.044-7.134 4.35c1.392 1.392 1.566 3.654 2.784 5.567c2.09 3.479 5.741 8.177 9.047 10.614c3.653 2.783 7.308 5.566 11.134 8.002c6.786 4.176 14.442 6.611 21.053 10.787c3.829 2.434 7.654 5.568 11.482 8.177c1.914 1.39 3.131 3.654 5.568 4.523v-.521c-1.219-1.567-1.567-3.828-2.784-5.568c-1.738-1.74-3.48-3.306-5.22-5.046c-5.045-6.784-11.308-12.7-18.093-17.571c-5.567-3.828-17.747-9.047-20.008-15.485c0 0-.175-.173-.348-.347c3.827-.348 8.35-1.74 12.005-2.784c5.915-1.567 11.308-1.218 17.398-2.784c2.783-.696 5.567-1.566 8.35-2.436v-1.565c-3.13-3.132-5.392-7.307-8.698-10.265c-8.873-7.657-18.617-15.137-28.707-21.4c-5.394-3.48-12.354-5.742-18.095-8.699c-2.086-1.045-5.567-1.566-6.784-3.306c-3.133-3.827-4.873-8.872-7.134-13.396c-5.044-9.57-9.917-20.182-14.267-30.272c-3.13-6.786-5.044-13.572-8.872-19.834c-17.92-29.577-37.406-47.497-67.33-65.07c-6.438-3.653-14.093-5.219-22.27-7.132c-4.348-.175-8.699-.522-13.048-.697c-2.784-1.218-5.568-4.523-8.004-6.089C34.006 4.573 8.429-8.996 1.122 8.924c-4.698 11.308 6.96 22.442 10.96 28.185c2.96 4.001 6.786 8.524 8.874 13.048c1.218 2.956 1.565 6.09 2.783 9.221c2.785 7.653 5.393 16.18 9.048 23.314c1.914 3.653 4.001 7.48 6.437 10.786c1.392 1.913 3.827 2.784 4.35 5.915c-2.435 3.48-2.61 8.7-4.003 13.049c-6.263 19.66-3.826 44.017 5.046 58.457c2.783 4.348 9.395 13.92 18.268 10.265c7.83-3.131 6.09-13.048 8.35-21.747c.524-2.09.176-3.48 1.219-4.872v.349c2.436 4.87 4.871 9.569 7.133 14.44c5.394 8.524 14.788 17.398 22.617 23.314c4.177 3.13 7.482 8.524 12.702 10.438v-.523h-.349c-1.044-1.566-2.61-2.261-4.001-3.48c-3.131-3.13-6.612-6.958-9.047-10.438c-7.306-9.744-13.745-20.53-19.486-31.665c-2.783-5.392-5.22-11.308-7.481-16.701c-1.045-2.09-1.045-5.22-2.784-6.263c-2.61 3.827-6.437 7.133-8.351 11.83c-3.304 7.481-3.653 16.702-4.871 26.27c-.696.176-.349 0-.697.35c-5.566-1.394-7.48-7.134-9.569-12.006c-5.22-12.352-6.09-32.186-1.565-46.452c1.218-3.654 6.438-15.136 4.35-18.616c-1.044-3.306-4.525-5.22-6.438-7.829c-2.261-3.306-4.698-7.48-6.263-11.135c-4.176-9.743-6.264-20.53-10.787-30.273c-2.088-4.524-5.74-9.22-8.699-13.396c-3.305-4.697-6.959-8.004-9.569-13.571c-.869-1.913-2.088-5.045-.696-7.133c.348-1.392 1.043-1.913 2.436-2.261c2.262-1.915 8.7.521 10.96 1.565c6.438 2.608 11.831 5.046 17.225 8.699c2.435 1.74 5.045 5.046 8.176 5.916h3.654c5.568 1.217 11.83.348 17.05 1.913c9.222 2.957 17.572 7.307 25.054 12.005c22.792 14.44 41.58 34.97 54.282 59.501c2.088 4 2.957 7.656 4.871 11.83c3.655 8.526 8.178 17.225 11.83 25.576c3.654 8.176 7.133 16.528 12.353 23.314c2.61 3.652 13.048 5.567 17.746 7.481c3.48 1.565 8.874 2.958 12.005 4.871c5.915 3.652 11.83 7.83 17.398 11.83c2.784 2.088 11.482 6.438 12.005 9.917z" fill="#00546B"/><path d="M58.186 43.022c-2.957 0-5.044.35-7.132.871v.348h.348c1.393 2.784 3.827 4.698 5.566 7.133c1.393 2.783 2.61 5.568 4.003 8.352c.173-.175.347-.348.347-.348c2.437-1.741 3.654-4.524 3.654-8.7c-1.044-1.217-1.218-2.435-2.088-3.653c-1.043-1.741-3.306-2.61-4.698-4.003z" fill="#00546B"/></svg>
